build/img/blank.svg

<svg width="283" height="137" viewBox="0 0 283 137" fill="none" xmlns="http://www.w3.org/2000/svg">
<path d="M272.642 15.752H10.8309C5.27523 15.752 0.76123 20.2702 0.76123 25.8311V107.16C0.76123 112.721 5.27523 117.239 10.8309 117.239H30.2758C32.0119 125.58 33.7481 136.355 33.7481 136.355L51.4568 117.239H272.642C278.198 117.239 282.712 112.721 282.712 107.16V25.8311C283.059 20.2702 278.545 15.752 272.642 15.752Z" fill="#C4C4C4"/>
<path d="M18.6121 23.1696C18.9328 22.4082 19.2268 21.5923 19.4941 20.7221C19.7079 19.9063 19.8415 19.0904 19.8949 18.2746C19.8949 17.5132 19.7613 16.8061 19.4941 16.1535C19.2268 15.5552 18.7458 15.0657 18.0509 14.685C16.6613 13.9235 15.4854 12.9445 14.5233 11.748C13.5078 10.6058 13 9.1917 13 7.50565C13 6.47226 13.1871 5.49326 13.5612 4.56865C13.9354 3.64405 14.4698 2.82822 15.1647 2.12116C15.8061 1.4685 16.5811 0.951804 17.4897 0.571083C18.3984 0.190362 19.3604 9.46224e-07 20.376 9.46224e-07C22.407 9.46224e-07 24.1174 0.734249 25.5071 2.20274C26.8967 3.67124 27.645 5.43887 27.7519 7.50565C27.9123 9.6812 27.645 11.6936 26.9502 13.5428C26.2019 15.4464 25.3467 17.1053 24.3846 18.5194C23.3691 19.9335 22.3803 21.0756 21.4182 21.9459C20.4561 22.8705 19.788 23.4687 19.4139 23.7407C19.307 23.6863 19.1734 23.6047 19.013 23.4959L18.7725 23.2512C18.719 23.1968 18.6656 23.1696 18.6121 23.1696ZM37.0521 23.1696C37.3728 22.4082 37.6667 21.5923 37.934 20.7221C38.1478 19.9063 38.2814 19.0904 38.3348 18.2746C38.3348 17.5132 38.2012 16.8061 37.934 16.1535C37.6667 15.5552 37.1857 15.0657 36.4909 14.685C35.1012 13.9235 33.9253 12.9445 32.9632 11.748C31.9477 10.6058 31.4399 9.1917 31.4399 7.50565C31.4399 6.47226 31.627 5.49326 32.0011 4.56865C32.3753 3.64405 32.9098 2.82822 33.6046 2.12116C34.246 1.4685 35.021 0.951804 35.9296 0.571083C36.8383 0.190362 37.8004 9.46224e-07 38.8159 9.46224e-07C40.847 9.46224e-07 42.5573 0.734249 43.947 2.20274C45.3367 3.67124 46.085 5.43887 46.1919 7.50565C46.3522 9.6812 46.085 11.6936 45.3901 13.5428C44.6418 15.4464 43.7866 17.1053 42.8246 18.5194C41.809 19.9335 40.8202 21.0756 39.8581 21.9459C38.8961 22.8705 38.2279 23.4687 37.8538 23.7407C37.7469 23.6863 37.6133 23.6047 37.4529 23.4959L37.2124 23.2512C37.159 23.1968 37.1055 23.1696 37.0521 23.1696Z" fill="#0E2EB6"/>
</svg>

<svg width="283" height="137" fill="none" xmlns="http://www.w3.org/2000/svg"><path d="M272.642 15.752H10.831C5.275 15.752.76 20.27.76 25.832v81.328c0 5.561 4.514 10.079 10.07 10.079h19.445c1.736 8.341 3.472 19.116 3.472 19.116l17.709-19.116h221.185c5.556 0 10.07-4.518 10.07-10.079V25.831c.347-5.56-4.167-10.079-10.07-10.079z" fill="#C4C4C4"/><path d="M18.612 23.17c.32-.762.615-1.578.882-2.448a12.86 12.86 0 00.4-2.447c0-.762-.133-1.469-.4-2.121-.267-.599-.748-1.088-1.443-1.469a11.668 11.668 0 01-3.528-2.937C13.508 10.606 13 9.192 13 7.506c0-1.034.187-2.013.561-2.937a7.438 7.438 0 011.604-2.448A7.018 7.018 0 0117.49.571 7.393 7.393 0 0120.376 0c2.031 0 3.741.734 5.131 2.203 1.39 1.468 2.138 3.236 2.245 5.303.16 2.175-.107 4.188-.802 6.037-.748 1.903-1.603 3.562-2.565 4.976-1.016 1.415-2.005 2.557-2.967 3.427-.962.924-1.63 1.523-2.004 1.795a3.914 3.914 0 01-.401-.245l-.24-.245c-.054-.054-.107-.081-.16-.081zm18.44 0c.32-.762.615-1.578.882-2.448a12.94 12.94 0 00.4-2.447c0-.762-.133-1.469-.4-2.121-.267-.599-.748-1.088-1.443-1.469a11.667 11.667 0 01-3.528-2.937c-1.015-1.142-1.523-2.556-1.523-4.242 0-1.034.187-2.013.561-2.937a7.44 7.44 0 011.604-2.448A7.018 7.018 0 0135.93.571 7.393 7.393 0 0138.816 0c2.031 0 3.741.734 5.131 2.203 1.39 1.468 2.138 3.236 2.245 5.303.16 2.175-.107 4.188-.802 6.037-.748 1.903-1.603 3.562-2.565 4.976-1.016 1.415-2.005 2.557-2.967 3.427-.962.924-1.63 1.523-2.004 1.795a3.914 3.914 0 01-.401-.245l-.24-.245c-.054-.054-.108-.081-.16-.081z" fill="#0E2EB6"/></svg>
